; generated by PrusaSlicer 2.3.0+win64 on 2021-04-20 at 02:01:47 UTC


;
;

;
;
; 

; external perimeters extrusion width = 0.45mm
; perimeters extrusion width = 0.45mm
; infill extrusion width = 0.45mm
; solid infill extrusion width = 0.45mm
; top infill extrusion width = 0.40mm
; first layer extrusion width = 0.42mm

M73 P0 R31
M201 X1250 Y1250 Z400 E5000 ; sets maximum accelerations, mm/sec^2
M203 X180 Y180 Z12 E80 ; sets maximum feedrates, mm/sec
M204 P1250 R1250 T1250 ; sets acceleration (P, T) and retract acceleration (R), mm/sec^2
M205 X8.00 Y8.00 Z2.00 E10.00 ; sets the jerk limits, mm/sec
M205 S0 T0 ; sets the minimum extruding and travel feed rate, mm/sec
M107
;TYPE:Custom
G90 ; use absolute coordinates
M83 ; extruder relative mode
M104 S170 ; set extruder temp for bed leveling
M140 S60 ; set bed temp
M109 R170 ; wait for bed leveling temp
M190 S60 ; wait for bed temp
G28 ; home all without mesh bed level
G29 ; mesh bed leveling 
M104 S215 ; set extruder temp
G92 E0.0
G1 Y-2.0 X179 F2400
G1 Z3 F720
M109 S215 ; wait for extruder temp

; intro line
G1 X170 F1000
G1 Z0.2 F720
G1 X110.0 E8.0 F900
G1 X40.0 E10.0 F700
G92 E0.0

M221 S95 ; set flow
G21 ; set units to millimeters
G90 ; use absolute coordinates
M83 ; use relative distances for extrusion
M900 K0.2 ; Filament gcode LA 1.5
; ; Filament gcode LA 1.0
;LAYER_CHANGE
;Z:0.2
;HEIGHT:0.2
;BEFORE_LAYER_CHANGE
G92 E0.0
;0.2


G1 E-3.20000 F4200.000
G1 Z0.200 F9000.000
;AFTER_LAYER_CHANGE
;0.2
G1 Z0.400
G1 X64.456 Y65.359
G1 Z0.200
G1 E3.20000 F2400.000
M204 S800
;TYPE:Skirt
;WIDTH:0.42
G1 F1200.000
G1 X65.196 Y64.484 E0.03595
G1 X65.755 Y64.016 E0.02285
G1 X66.428 Y63.602 E0.02479
G1 X94.062 Y49.547 E0.97207
G1 X95.094 Y49.118 E0.03505
G1 X96.238 Y48.840 E0.03689
G1 X97.353 Y48.748 E0.03510
G1 X113.407 Y48.748 E0.50334
M73 P1 R31
G1 X114.591 Y48.844 E0.03725
G1 X115.858 Y49.173 E0.04104
G1 X116.755 Y49.553 E0.03057
G1 X117.603 Y50.065 E0.03105
G1 X118.611 Y50.900 E0.04104
G1 X119.389 Y51.813 E0.03760
G1 X120.048 Y52.931 E0.04069
G1 X120.419 Y53.845 E0.03093
G1 X120.655 Y54.799 E0.03081
G1 X120.778 Y56.037 E0.03902
G1 X120.745 Y86.155 E0.94431
G1 X116.402 Y109.409 E0.74173
G1 X116.201 Y110.138 E0.02373
G1 X115.732 Y111.059 E0.03239
G1 X115.208 Y111.704 E0.02605
G1 X114.594 Y112.219 E0.02514
G1 X88.429 Y129.716 E0.98691
G1 X87.403 Y130.337 E0.03762
G1 X86.243 Y130.823 E0.03941
G1 X84.923 Y131.147 E0.04264
G1 X83.650 Y131.252 E0.04002
G1 X67.487 Y131.250 E0.50680
G1 X66.275 Y131.147 E0.03811
G1 X65.026 Y130.847 E0.04027
G1 X63.825 Y130.354 E0.04072
G1 X62.812 Y129.746 E0.03704
G1 X61.671 Y128.796 E0.04656
G1 X60.718 Y127.647 E0.04679
G1 X60.137 Y126.684 E0.03526
G1 X59.678 Y125.597 E0.03701
G1 X59.305 Y124.046 E0.05002
G1 X59.221 Y122.894 E0.03622
G1 X59.221 Y93.314 E0.92745
G1 X59.290 Y92.513 E0.02521
G1 X63.603 Y67.469 E0.79682
G1 X63.845 Y66.563 E0.02940
G1 X64.428 Y65.413 E0.04043
M204 S1250
; printing object ControllerFit - Housing^ControllerFit-1.STL id:1 copy 0
G1 E-2.24000 F4200.000
;WIPE_START
G1 F7200.000
G1 X65.196 Y64.484 E-0.66772
G1 X65.534 Y64.201 E-0.24428
;WIPE_END
G1 E-0.04800 F4200.000
G1 Z0.400 F9000.000
G1 X64.317 Y91.608
G1 Z0.200
G1 E3.20000 F2400.000
M204 S800
;TYPE:Perimeter
G1 F1200.000
G1 X64.566 Y91.588 E0.00783
G1 X86.628 Y91.588 E0.69173
G1 X86.877 Y91.608 E0.00783
G1 X87.150 Y91.673 E0.00880
G1 X87.409 Y91.781 E0.00880
G1 X87.649 Y91.927 E0.00880
G1 X87.862 Y92.110 E0.00880
G1 X88.045 Y92.323 E0.00880
G1 X88.192 Y92.563 E0.00880
G1 X88.299 Y92.822 E0.00880
G1 X88.365 Y93.095 E0.00880
G1 X88.384 Y93.344 E0.00783
G1 X88.384 Y122.906 E0.92689
G1 X88.328 Y123.624 E0.02259
G1 X88.152 Y124.355 E0.02356
G1 X87.865 Y125.050 E0.02356
G1 X87.472 Y125.690 E0.02356
G1 X86.984 Y126.262 E0.02356
G1 X86.412 Y126.750 E0.02356
G1 X85.771 Y127.143 E0.02356
G1 X85.077 Y127.430 E0.02356
G1 X84.346 Y127.606 E0.02356
G1 X83.628 Y127.662 E0.02259
G1 X67.566 Y127.662 E0.50361
G1 X66.848 Y127.606 E0.02259
G1 X66.117 Y127.430 E0.02356
G1 X65.423 Y127.143 E0.02356
G1 X64.782 Y126.750 E0.02356
G1 X64.210 Y126.262 E0.02356
G1 X63.722 Y125.690 E0.02356
G1 X63.330 Y125.050 E0.02356
G1 X63.042 Y124.355 E0.02356
G1 X62.867 Y123.624 E0.02356
G1 X62.810 Y122.906 E0.02259
G1 X62.810 Y93.344 E0.92689
G1 X62.830 Y93.095 E0.00783
G1 X62.895 Y92.822 E0.00880
G1 X63.003 Y92.563 E0.00880
G1 X63.149 Y92.323 E0.00880
G1 X63.332 Y92.110 E0.00880
G1 X63.545 Y91.927 E0.00880
G1 X63.785 Y91.781 E0.00880
G1 X64.044 Y91.673 E0.00880
G1 X64.259 Y91.622 E0.00692
M204 S1250
G1 X64.347 Y91.988 F9000.000
M204 S800
;TYPE:External perimeter
G1 F1200.000
G1 X64.581 Y91.965 E0.00738
G1 X86.613 Y91.965 E0.69080
G1 X86.818 Y91.981 E0.00644
G1 X87.033 Y92.033 E0.00694
G1 X87.238 Y92.118 E0.00694
G1 X87.427 Y92.233 E0.00694
G1 X87.595 Y92.377 E0.00694
G1 X87.739 Y92.546 E0.00694
G1 X87.855 Y92.735 E0.00694
G1 X87.939 Y92.939 E0.00694
G1 X87.991 Y93.154 E0.00694
G1 X88.007 Y93.359 E0.00644
G1 X88.007 Y122.891 E0.92596
M73 P2 R31
G1 X87.954 Y123.565 E0.02120
G1 X87.792 Y124.238 E0.02170
G1 X87.528 Y124.878 E0.02170
G1 X87.166 Y125.468 E0.02170
G1 X86.716 Y125.994 E0.02170
G1 X86.190 Y126.444 E0.02170
G1 X85.600 Y126.806 E0.02170
G1 X84.960 Y127.071 E0.02170
G1 X84.287 Y127.232 E0.02170
G1 X83.613 Y127.285 E0.02120
G1 X67.581 Y127.285 E0.50268
G1 X66.907 Y127.232 E0.02120
G1 X66.234 Y127.071 E0.02170
G1 X65.594 Y126.806 E0.02170
G1 X65.004 Y126.444 E0.02170
G1 X64.478 Y125.994 E0.02170
G1 X64.028 Y125.468 E0.02170
G1 X63.667 Y124.878 E0.02170
G1 X63.402 Y124.238 E0.02170
G1 X63.240 Y123.565 E0.02170
G1 X63.187 Y122.891 E0.02120
G1 X63.187 Y93.359 E0.92596
G1 X63.203 Y93.154 E0.00644
G1 X63.255 Y92.939 E0.00694
G1 X63.340 Y92.735 E0.00694
G1 X63.455 Y92.546 E0.00694
G1 X63.599 Y92.377 E0.00694
G1 X63.768 Y92.233 E0.00694
G1 X63.956 Y92.118 E0.00694
G1 X64.161 Y92.033 E0.00694
G1 X64.288 Y92.002 E0.00411
M204 S1250
G1 X64.428 Y91.767 F9000.000
G1 X64.102 Y91.228
M204 S800
;TYPE:Perimeter
G1 F1200.000
G1 X64.251 Y91.192 E0.00480
G1 X64.628 Y91.162 E0.01185
G1 X86.566 Y91.162 E0.68786
G1 X86.943 Y91.192 E0.01185
G1 X87.280 Y91.273 E0.01088
G1 X87.601 Y91.406 E0.01088
G1 X87.896 Y91.587 E0.01088
G1 X88.160 Y91.812 E0.01088
G1 X88.385 Y92.076 E0.01088
G1 X88.567 Y92.372 E0.01088
G1 X88.699 Y92.692 E0.01088
G1 X88.780 Y93.029 E0.01088
G1 X88.810 Y93.406 E0.01185
G1 X88.810 Y122.844 E0.92301
G1 X88.743 Y123.690 E0.02661
G1 X88.553 Y124.485 E0.02564
G1 X88.240 Y125.241 E0.02564
G1 X87.812 Y125.938 E0.02564
G1 X87.281 Y126.560 E0.02564
G1 X86.660 Y127.091 E0.02564
G1 X85.963 Y127.518 E0.02564
G1 X85.207 Y127.831 E0.02564
G1 X84.412 Y128.022 E0.02564
G1 X83.566 Y128.088 E0.02661
G1 X67.628 Y128.088 E0.49973
G1 X66.782 Y128.022 E0.02661
G1 X65.987 Y127.831 E0.02564
G1 X65.232 Y127.518 E0.02564
G1 X64.534 Y127.091 E0.02564
G1 X63.913 Y126.560 E0.02564
G1 X63.382 Y125.938 E0.02564
G1 X62.954 Y125.241 E0.02564
G1 X62.642 Y124.485 E0.02564
G1 X62.451 Y123.690 E0.02564
G1 X62.384 Y122.844 E0.02661
G1 X62.384 Y93.406 E0.92301
G1 X62.414 Y93.029 E0.01185
G1 X62.495 Y92.692 E0.01088
G1 X62.627 Y92.372 E0.01088
G1 X62.809 Y92.076 E0.01088
G1 X63.034 Y91.812 E0.01088
G1 X63.298 Y91.587 E0.01088
G1 X63.594 Y91.406 E0.01088
G1 X63.914 Y91.273 E0.01088
G1 X64.044 Y91.242 E0.00420
M204 S1250
G1 X63.797 Y90.913 F9000.000
M204 S800
;TYPE:External perimeter
G1 F1200.000
G1 X64.192 Y90.818 E0.01274
G1 X64.613 Y90.785 E0.01324
G1 X86.581 Y90.785 E0.68878
G1 X87.002 Y90.818 E0.01324
G1 X87.397 Y90.913 E0.01274
G1 X87.772 Y91.069 E0.01274
G1 X88.119 Y91.281 E0.01274
G1 X88.428 Y91.545 E0.01274
G1 X88.691 Y91.854 E0.01274
G1 X88.904 Y92.200 E0.01274
G1 X89.059 Y92.575 E0.01274
G1 X89.154 Y92.970 E0.01274
G1 X89.187 Y93.391 E0.01324
G1 X89.187 Y122.859 E0.92394
G1 X89.117 Y123.749 E0.02800
G1 X88.912 Y124.602 E0.02750
G1 X88.577 Y125.412 E0.02750
G1 X88.118 Y126.160 E0.02750
G1 X87.549 Y126.827 E0.02750
G1 X86.882 Y127.397 E0.02750
G1 X86.134 Y127.855 E0.02750
G1 X85.324 Y128.190 E0.02750
G1 X84.471 Y128.395 E0.02750
G1 X83.581 Y128.465 E0.02800
G1 X67.613 Y128.465 E0.50066
G1 X66.723 Y128.395 E0.02800
G1 X65.870 Y128.190 E0.02750
G1 X65.060 Y127.855 E0.02750
G1 X64.312 Y127.397 E0.02750
G1 X63.645 Y126.827 E0.02750
G1 X63.076 Y126.160 E0.02750
G1 X62.617 Y125.412 E0.02750
G1 X62.282 Y124.602 E0.02750
G1 X62.077 Y123.749 E0.02750
G1 X62.007 Y122.859 E0.02800
G1 X62.007 Y93.391 E0.92394
G1 X62.040 Y92.970 E0.01324
G1 X62.135 Y92.575 E0.01274
G1 X62.290 Y92.200 E0.01274
G1 X62.503 Y91.854 E0.01274
G1 X62.767 Y91.545 E0.01274
G1 X63.075 Y91.281 E0.01274
G1 X63.422 Y91.069 E0.01274
G1 X63.742 Y90.936 E0.01086
M204 S1250
G1 X64.094 Y91.181 F9000.000
; stop printing object ControllerFit - Housing^ControllerFit-1.STL id:1 copy 0
; printing object USBFit - Base^Assem1-1.STL id:2 copy 0
G1 E-2.24000 F4200.000
;WIPE_START
G1 F7200.000
G1 X64.192 Y90.818 E-0.25801
G1 X64.613 Y90.785 E-0.23407
G1 X65.371 Y90.785 E-0.41993
;WIPE_END
G1 E-0.04800 F4200.000
G1 Z0.400 F9000.000
G1 X100.810 Y98.838
G1 Z0.200
G1 E3.20000 F2400.000
M204 S800
;TYPE:Perimeter
G1 F1200.000
G1 X108.884 Y98.838 E0.25316
G1 X108.884 Y101.501 E0.08351
G1 X108.678 Y101.885 E0.01366
G1 X108.639 Y102.105 E0.00700
G1 X108.654 Y102.282 E0.00560
G1 X108.694 Y102.407 E0.00411
G1 X108.884 Y102.727 E0.01167
G1 X108.884 Y107.912 E0.16256
G1 X100.810 Y107.912 E0.25316
G1 X100.810 Y102.727 E0.16256
G1 X101.024 Y102.345 E0.01374
G1 X101.057 Y102.088 E0.00813
G1 X101.008 Y101.870 E0.00700
G1 X100.810 Y101.501 E0.01313
M73 P2 R30
G1 X100.810 Y98.898 E0.08162
M204 S1250
G1 X101.187 Y99.215 F9000.000
M204 S800
;TYPE:External perimeter
G1 F1200.000
G1 X108.507 Y99.215 E0.22951
G1 X108.507 Y101.406 E0.06871
G1 X108.330 Y101.736 E0.01174
G1 X108.295 Y101.842 E0.00350
G1 X108.259 Y102.094 E0.00797
G1 X108.281 Y102.347 E0.00797
G1 X108.311 Y102.461 E0.00371
G1 X108.354 Y102.572 E0.00374
G1 X108.507 Y102.831 E0.00940
G1 X108.507 Y107.535 E0.14750
G1 X101.187 Y107.535 E0.22951
M73 P3 R30
G1 X101.187 Y102.831 E0.14750
G1 X101.340 Y102.572 E0.00940
G1 X101.383 Y102.461 E0.00374
G1 X101.413 Y102.347 E0.00371
G1 X101.435 Y102.088 E0.00816
G1 X101.426 Y101.976 E0.00352
G1 X101.361 Y101.731 E0.00794
G1 X101.187 Y101.406 E0.01155
G1 X101.187 Y99.275 E0.06683
M204 S1250
G1 X101.178 Y98.815 F9000.000
G1 E-2.24000 F4200.000
;WIPE_START
G1 F7200.000
G1 X102.833 Y99.261 E-0.91200
;WIPE_END
G1 E-0.04800 F4200.000
G1 Z0.400 F9000.000
G1 X96.446 Y108.999
G1 Z0.200
G1 E3.20000 F2400.000
M204 S800
;TYPE:Perimeter
G1 F1200.000
G1 X96.401 Y108.814 E0.00596
G1 X96.384 Y108.594 E0.00693
G1 X96.384 Y98.651 E0.31177
G1 X96.422 Y98.075 E0.01808
G1 X96.529 Y97.535 E0.01727
G1 X96.706 Y97.013 E0.01727
G1 X96.928 Y96.563 E0.01572
G1 X97.258 Y96.059 E0.01890
G1 X97.619 Y95.647 E0.01718
G1 X97.996 Y95.316 E0.01572
G1 X98.494 Y94.976 E0.01890
G1 X98.985 Y94.734 E0.01718
G1 X99.460 Y94.573 E0.01572
G1 X100.050 Y94.449 E0.01890
G1 X100.623 Y94.412 E0.01799
G1 X109.071 Y94.412 E0.26490
G1 X109.647 Y94.450 E0.01808
G1 X110.187 Y94.557 E0.01727
G1 X110.709 Y94.734 E0.01727
G1 X111.203 Y94.978 E0.01727
G1 X111.661 Y95.284 E0.01727
G1 X112.075 Y95.647 E0.01727
G1 X112.438 Y96.061 E0.01727
G1 X112.744 Y96.519 E0.01727
G1 X112.988 Y97.013 E0.01727
G1 X113.165 Y97.535 E0.01727
G1 X113.272 Y98.075 E0.01727
G1 X113.310 Y98.651 E0.01808
G1 X113.310 Y108.594 E0.31177
G1 X113.293 Y108.814 E0.00693
G1 X113.248 Y108.999 E0.00596
G1 X113.176 Y109.174 E0.00596
G1 X113.076 Y109.336 E0.00596
G1 X112.953 Y109.481 E0.00596
G1 X112.809 Y109.604 E0.00596
G1 X112.647 Y109.703 E0.00596
G1 X112.471 Y109.776 E0.00596
G1 X112.286 Y109.820 E0.00596
G1 X112.066 Y109.838 E0.00693
G1 X97.628 Y109.838 E0.45270
G1 X97.408 Y109.820 E0.00693
G1 X97.223 Y109.776 E0.00596
G1 X97.048 Y109.703 E0.00596
G1 X96.886 Y109.604 E0.00596
G1 X96.741 Y109.481 E0.00596
G1 X96.618 Y109.336 E0.00596
G1 X96.469 Y109.054 E0.01000
M204 S1250
G1 X96.120 Y109.199 F9000.000
M204 S800
;TYPE:External perimeter
G1 F1200.000
G1 X96.028 Y108.873 E0.01060
G1 X96.007 Y108.609 E0.00832
G1 X96.007 Y98.638 E0.31262
G1 X96.047 Y98.026 E0.01924
G1 X96.164 Y97.437 E0.01882
G1 X96.357 Y96.869 E0.01882
G1 X96.600 Y96.376 E0.01722
G1 X96.957 Y95.830 E0.02045
G1 X97.352 Y95.380 E0.01879
G1 X97.765 Y95.018 E0.01722
G1 X98.303 Y94.650 E0.02045
G1 X98.841 Y94.385 E0.01879
G1 X99.361 Y94.208 E0.01722
G1 X99.999 Y94.075 E0.02045
G1 X100.610 Y94.035 E0.01921
G1 X109.084 Y94.035 E0.26567
G1 X109.696 Y94.075 E0.01924
G1 X110.285 Y94.192 E0.01882
G1 X110.853 Y94.385 E0.01882
G1 X111.392 Y94.650 E0.01882
G1 X111.891 Y94.984 E0.01882
G1 X112.342 Y95.380 E0.01882
G1 X112.738 Y95.831 E0.01882
G1 X113.071 Y96.330 E0.01882
G1 X113.337 Y96.869 E0.01882
G1 X113.530 Y97.437 E0.01882
G1 X113.647 Y98.026 E0.01882
G1 X113.687 Y98.638 E0.01924
G1 X113.687 Y108.609 E0.31262
G1 X113.666 Y108.873 E0.00832
G1 X113.608 Y109.116 E0.00782
G1 X113.513 Y109.346 E0.00782
G1 X113.382 Y109.559 E0.00782
G1 X113.220 Y109.748 E0.00782
G1 X113.031 Y109.910 E0.00782
G1 X112.818 Y110.040 E0.00782
G1 X112.588 Y110.136 E0.00782
G1 X112.346 Y110.194 E0.00782
G1 X112.081 Y110.215 E0.00832
G1 X97.613 Y110.215 E0.45363
G1 X97.349 Y110.194 E0.00832
G1 X97.106 Y110.136 E0.00782
G1 X96.876 Y110.040 E0.00782
G1 X96.663 Y109.910 E0.00782
G1 X96.474 Y109.748 E0.00782
G1 X96.312 Y109.559 E0.00782
G1 X96.143 Y109.254 E0.01091
M204 S1250
G1 X96.331 Y108.934 F9000.000
G1 E-2.24000 F4200.000
;WIPE_START
G1 F7200.000
G1 X96.028 Y108.873 E-0.22046
G1 X96.007 Y108.609 E-0.14711
G1 X96.007 Y107.626 E-0.54443
;WIPE_END
G1 E-0.04800 F4200.000
G1 Z0.400 F9000.000
G1 X112.688 Y96.662
G1 Z0.200
G1 E3.20000 F2400.000
M204 S800
;TYPE:Solid infill
;WIDTH:0.421355
G1 F1200.000
G1 X111.871 Y95.844 E0.03638
G1 X111.488 Y95.509 E0.01601
G1 X111.061 Y95.223 E0.01617
G1 X110.600 Y94.996 E0.01617
G1 X110.429 Y94.938 E0.00568
G1 X112.784 Y97.292 E0.10478
G1 X112.891 Y97.608 E0.01049
G1 X112.972 Y98.016 E0.01308
G1 X109.706 Y94.750 E0.14535
G1 X109.119 Y94.698 E0.01852
G1 X113.023 Y98.602 E0.17373
G1 X113.027 Y99.141 E0.01696
G1 X108.581 Y94.695 E0.19788
G1 X108.045 Y94.695 E0.01684
G1 X113.027 Y99.677 E0.22170
G1 X113.027 Y100.212 E0.01684
G1 X107.510 Y94.695 E0.24551
G1 X106.975 Y94.695 E0.01684
G1 X113.027 Y100.747 E0.26933
G1 X113.027 Y101.282 E0.01684
G1 X106.440 Y94.695 E0.29315
G1 X105.905 Y94.695 E0.01684
G1 X113.027 Y101.817 E0.31696
G1 X113.027 Y102.352 E0.01684
G1 X105.369 Y94.695 E0.34078
G1 X104.834 Y94.695 E0.01684
G1 X108.694 Y98.555 E0.17178
G1 X109.167 Y98.555 E0.01487
G1 X109.167 Y99.027 E0.01487
G1 X113.027 Y102.888 E0.17178
G1 X113.027 Y103.423 E0.01684
G1 X109.167 Y99.563 E0.17178
G1 X109.167 Y100.098 E0.01684
G1 X113.027 Y103.958 E0.17178
G1 X113.027 Y104.493 E0.01684
G1 X109.167 Y100.633 E0.17178
G1 X109.167 Y101.168 E0.01684
G1 X113.027 Y105.028 E0.17178
G1 X113.027 Y105.564 E0.01684
G1 X109.121 Y101.657 E0.17383
G1 X108.942 Y102.014 E0.01255
G1 X113.027 Y106.099 E0.18179
G1 X113.027 Y106.634 E0.01684
G1 X109.167 Y102.774 E0.17178
G1 X109.167 Y103.309 E0.01684
G1 X113.027 Y107.169 E0.17178
G1 X113.027 Y107.704 E0.01684
G1 X109.167 Y103.844 E0.17178
G1 X109.167 Y104.379 E0.01684
G1 X113.027 Y108.240 E0.17178
G1 X113.013 Y108.761 E0.01641
G1 X109.167 Y104.914 E0.17116
G1 X109.167 Y105.450 E0.01684
G1 X112.862 Y109.145 E0.16444
G1 X112.847 Y109.170 E0.00091
G1 X112.752 Y109.280 E0.00458
G1 X112.589 Y109.407 E0.00651
G1 X109.167 Y105.985 E0.15229
G1 X109.167 Y106.520 E0.01684
G1 X112.191 Y109.544 E0.13458
G1 X111.667 Y109.555 E0.01651
G1 X109.167 Y107.055 E0.11124
G1 X109.167 Y107.590 E0.01684
G1 X111.131 Y109.555 E0.08742
G1 X110.596 Y109.555 E0.01684
G1 X109.167 Y108.126 E0.06361
G1 X109.167 Y108.195 E0.00217
G1 X108.701 Y108.195 E0.01467
G1 X110.061 Y109.555 E0.06053
G1 X109.526 Y109.555 E0.01684
G1 X108.166 Y108.195 E0.06053
G1 X107.630 Y108.195 E0.01684
G1 X108.991 Y109.555 E0.06053
G1 X108.455 Y109.555 E0.01684
G1 X107.095 Y108.195 E0.06053
G1 X106.560 Y108.195 E0.01684
G1 X107.920 Y109.555 E0.06053
G1 X107.385 Y109.555 E0.01684
G1 X106.025 Y108.195 E0.06053
G1 X105.490 Y108.195 E0.01684
G1 X106.850 Y109.555 E0.06053
