; generated by PrusaSlicer 2.3.0+win64 on 2021-04-15 at 21:21:45 UTC


;
;

;
;
; 

; external perimeters extrusion width = 0.45mm
; perimeters extrusion width = 0.45mm
; infill extrusion width = 0.45mm
; solid infill extrusion width = 0.45mm
; top infill extrusion width = 0.40mm
; first layer extrusion width = 0.42mm

M73 P0 R87
M201 X1250 Y1250 Z400 E5000 ; sets maximum accelerations, mm/sec^2
M203 X180 Y180 Z12 E80 ; sets maximum feedrates, mm/sec
M204 P1250 R1250 T1250 ; sets acceleration (P, T) and retract acceleration (R), mm/sec^2
M205 X8.00 Y8.00 Z2.00 E10.00 ; sets the jerk limits, mm/sec
M205 S0 T0 ; sets the minimum extruding and travel feed rate, mm/sec
M107
;TYPE:Custom
G90 ; use absolute coordinates
M83 ; extruder relative mode
M104 S170 ; set extruder temp for bed leveling
M140 S60 ; set bed temp
M109 R170 ; wait for bed leveling temp
M190 S60 ; wait for bed temp
G28 ; home all without mesh bed level
G29 ; mesh bed leveling 
M104 S215 ; set extruder temp
G92 E0.0
G1 Y-2.0 X179 F2400
G1 Z3 F720
M109 S215 ; wait for extruder temp

; intro line
G1 X170 F1000
G1 Z0.2 F720
G1 X110.0 E8.0 F900
G1 X40.0 E10.0 F700
G92 E0.0

M221 S95 ; set flow
G21 ; set units to millimeters
G90 ; use absolute coordinates
M83 ; use relative distances for extrusion
M900 K0.2 ; Filament gcode LA 1.5
; ; Filament gcode LA 1.0
;LAYER_CHANGE
;Z:0.2
;HEIGHT:0.2
;BEFORE_LAYER_CHANGE
G92 E0.0
;0.2


G1 E-3.20000 F4200.000
G1 Z0.200 F9000.000
;AFTER_LAYER_CHANGE
;0.2
G1 Z0.400
G1 X35.930 Y66.072
G1 Z0.200
G1 E3.20000 F2400.000
M204 S800
;TYPE:Skirt
;WIDTH:0.42
G1 F1200.000
G1 X37.708 Y65.134 E0.06304
G1 X84.260 Y49.690 E1.53784
G1 X132.824 Y41.797 E1.54266
G1 X134.655 Y41.740 E0.05745
G1 X136.633 Y42.011 E0.06261
G1 X138.554 Y42.646 E0.06343
G1 X140.038 Y43.414 E0.05237
G1 X141.386 Y44.401 E0.05237
G1 X142.802 Y45.829 E0.06308
G1 X143.847 Y47.332 E0.05738
G1 X147.778 Y54.156 E0.24692
G1 X148.454 Y55.591 E0.04975
G1 X148.919 Y57.140 E0.05071
G1 X149.188 Y59.218 E0.06569
G1 X149.139 Y60.812 E0.05000
G1 X148.846 Y62.426 E0.05143
G1 X134.481 Y128.514 E2.12054
G1 X134.210 Y129.316 E0.02654
G1 X133.848 Y129.943 E0.02272
G1 X133.355 Y130.550 E0.02449
G1 X132.576 Y131.261 E0.03309
G1 X131.205 Y132.181 E0.05177
G1 X129.166 Y133.175 E0.07110
G1 X126.039 Y134.289 E0.10410
G1 X122.395 Y135.253 E0.11817
G1 X117.412 Y136.228 E0.15920
G1 X111.347 Y137.075 E0.19201
G1 X104.038 Y137.748 E0.23014
G1 X95.793 Y138.163 E0.25884
G1 X86.021 Y138.262 E0.30641
G1 X76.332 Y137.976 E0.30395
G1 X67.692 Y137.394 E0.27149
G1 X60.019 Y136.589 E0.24190
G1 X52.972 Y135.558 E0.22332
G1 X46.656 Y134.318 E0.20180
G1 X41.591 Y132.999 E0.16413
G1 X38.283 Y131.884 E0.10944
G1 X36.864 Y131.308 E0.04803
G1 X34.294 Y130.005 E0.09035
G1 X32.901 Y129.042 E0.05310
G1 X31.994 Y128.185 E0.03913
G1 X31.511 Y127.571 E0.02448
G1 X31.134 Y126.895 E0.02427
G1 X30.909 Y126.240 E0.02172
G1 X30.810 Y125.441 E0.02524
G1 X30.811 Y75.421 E1.56832
G1 X31.001 Y73.483 E0.06107
G1 X31.419 Y71.863 E0.05246
G1 X32.087 Y70.317 E0.05281
G1 X33.174 Y68.611 E0.06340
G1 X34.518 Y67.162 E0.06198
G1 X35.882 Y66.109 E0.05403
M204 S1250
; printing object Backplate.STL id:0 copy 0
G1 E-2.24000 F4200.000
;WIPE_START
G1 F7200.000
G1 X37.334 Y65.334 E-0.91200
;WIPE_END
G1 E-0.04800 F4200.000
G1 Z0.400 F9000.000
G1 X83.134 Y74.553
G1 Z0.200
G1 E3.20000 F2400.000
M204 S800
;TYPE:Perimeter
G1 F1200.000
G1 X83.239 Y74.070 E0.01551
G1 X83.421 Y73.615 E0.01537
G1 X83.678 Y73.198 E0.01537
G1 X84.002 Y72.830 E0.01537
G1 X84.384 Y72.522 E0.01537
G1 X84.812 Y72.283 E0.01537
G1 X85.274 Y72.119 E0.01537
G1 X85.757 Y72.037 E0.01537
G1 X86.247 Y72.037 E0.01537
G1 X86.730 Y72.119 E0.01537
G1 X87.192 Y72.283 E0.01537
G1 X87.620 Y72.522 E0.01537
G1 X87.969 Y72.803 E0.01406
G1 X88.323 Y73.194 E0.01653
G1 X88.582 Y73.615 E0.01551
G1 X88.765 Y74.070 E0.01537
G1 X88.868 Y74.549 E0.01537
G1 X88.889 Y75.039 E0.01537
G1 X88.827 Y75.525 E0.01537
G1 X88.683 Y75.994 E0.01537
G1 X88.463 Y76.431 E0.01537
G1 X88.171 Y76.825 E0.01537
G1 X87.817 Y77.165 E0.01537
G1 X87.446 Y77.416 E0.01406
G1 X86.969 Y77.640 E0.01653
G1 X86.490 Y77.764 E0.01551
G1 X86.002 Y77.806 E0.01537
G1 X85.514 Y77.764 E0.01537
G1 X85.039 Y77.641 E0.01537
G1 X84.631 Y77.456 E0.01406
G1 X84.190 Y77.168 E0.01653
G1 X83.833 Y76.825 E0.01551
G1 X83.541 Y76.431 E0.01537
G1 X83.320 Y75.994 E0.01537
G1 X83.177 Y75.525 E0.01537
G1 X83.120 Y75.080 E0.01406
G1 X83.133 Y74.613 E0.01464
M204 S1250
G1 X83.510 Y74.624 F9000.000
M204 S800
;TYPE:External perimeter
G1 F1200.000
G1 X83.601 Y74.181 E0.01418
G1 X83.759 Y73.785 E0.01336
G1 X83.983 Y73.423 E0.01336
G1 X84.264 Y73.103 E0.01336
G1 X84.596 Y72.835 E0.01336
G1 X84.967 Y72.628 E0.01336
G1 X85.369 Y72.486 E0.01336
G1 X85.789 Y72.414 E0.01336
G1 X86.215 Y72.414 E0.01336
G1 X86.635 Y72.486 E0.01336
G1 X87.036 Y72.628 E0.01336
G1 X87.408 Y72.835 E0.01336
G1 X87.709 Y73.078 E0.01214
G1 X88.020 Y73.421 E0.01451
G1 X88.244 Y73.785 E0.01341
G1 X88.403 Y74.181 E0.01336
G1 X88.493 Y74.597 E0.01336
G1 X88.511 Y75.023 E0.01336
G1 X88.457 Y75.445 E0.01336
G1 X88.332 Y75.852 E0.01336
G1 X88.141 Y76.233 E0.01336
G1 X87.887 Y76.575 E0.01336
G1 X87.580 Y76.870 E0.01336
G1 X87.259 Y77.087 E0.01214
G1 X86.840 Y77.284 E0.01451
G1 X86.426 Y77.391 E0.01341
G1 X86.002 Y77.428 E0.01336
G1 X85.577 Y77.391 E0.01336
G1 X85.165 Y77.284 E0.01336
G1 X84.813 Y77.125 E0.01214
G1 X84.425 Y76.871 E0.01451
G1 X84.117 Y76.575 E0.01341
G1 X83.863 Y76.233 E0.01336
G1 X83.672 Y75.852 E0.01336
G1 X83.547 Y75.445 E0.01336
G1 X83.498 Y75.061 E0.01214
G1 X83.508 Y74.684 E0.01184
M204 S1250
G1 X83.190 Y74.384 F9000.000
G1 E-2.24000 F4200.000
;WIPE_START
G1 F7200.000
G1 X83.601 Y74.181 E-0.28342
G1 X83.759 Y73.785 E-0.23606
G1 X83.983 Y73.423 E-0.23606
G1 X84.169 Y73.211 E-0.15646
;WIPE_END
G1 E-0.04800 F4200.000
G1 Z0.400 F9000.000
G1 X120.667 Y70.440
G1 Z0.200
G1 E3.20000 F2400.000
M204 S800
;TYPE:Perimeter
G1 F1200.000
G1 X120.687 Y69.951 E0.01537
G1 X120.791 Y69.472 E0.01537
G1 X120.973 Y69.017 E0.01537
G1 X121.230 Y68.599 E0.01537
G1 X121.554 Y68.231 E0.01537
G1 X121.936 Y67.923 E0.01537
G1 X122.364 Y67.684 E0.01537
G1 X122.786 Y67.535 E0.01406
G1 X123.304 Y67.438 E0.01653
G1 X123.799 Y67.438 E0.01551
G1 X124.282 Y67.521 E0.01537
G1 X124.744 Y67.684 E0.01537
G1 X125.136 Y67.903 E0.01406
G1 X125.551 Y68.228 E0.01653
G1 X125.877 Y68.599 E0.01551
G1 X126.134 Y69.017 E0.01537
G1 X126.317 Y69.472 E0.01537
G1 X126.420 Y69.951 E0.01537
G1 X126.441 Y70.440 E0.01537
G1 X126.379 Y70.927 E0.01537
G1 X126.235 Y71.395 E0.01537
G1 X126.015 Y71.833 E0.01537
G1 X125.723 Y72.227 E0.01537
G1 X125.400 Y72.537 E0.01406
G1 X124.967 Y72.839 E0.01653
G1 X124.517 Y73.043 E0.01551
G1 X124.042 Y73.166 E0.01537
G1 X123.554 Y73.208 E0.01537
G1 X123.065 Y73.166 E0.01537
G1 X122.591 Y73.043 E0.01537
G1 X122.183 Y72.858 E0.01406
G1 X121.742 Y72.569 E0.01653
G1 X121.385 Y72.227 E0.01551
G1 X121.093 Y71.833 E0.01537
G1 X120.872 Y71.395 E0.01537
G1 X120.729 Y70.927 E0.01537
G1 X120.674 Y70.500 E0.01349
M204 S1250
G1 X121.048 Y70.452 F9000.000
M204 S800
;TYPE:External perimeter
G1 F1200.000
G1 X121.063 Y69.999 E0.01422
G1 X121.152 Y69.582 E0.01336
G1 X121.311 Y69.187 E0.01336
G1 X121.535 Y68.824 E0.01336
G1 X121.816 Y68.505 E0.01336
G1 X122.148 Y68.237 E0.01336
G1 X122.519 Y68.029 E0.01336
G1 X122.884 Y67.900 E0.01214
G1 X123.339 Y67.815 E0.01451
G1 X123.767 Y67.815 E0.01341
G1 X124.187 Y67.887 E0.01336
G1 X124.588 Y68.029 E0.01336
G1 X124.926 Y68.218 E0.01214
G1 X125.291 Y68.503 E0.01451
G1 X125.573 Y68.824 E0.01341
G1 X125.796 Y69.187 E0.01336
G1 X125.955 Y69.582 E0.01336
G1 X126.045 Y69.999 E0.01336
G1 X126.063 Y70.424 E0.01336
G1 X126.009 Y70.847 E0.01336
G1 X125.884 Y71.254 E0.01336
G1 X125.692 Y71.635 E0.01336
G1 X125.439 Y71.977 E0.01336
G1 X125.160 Y72.245 E0.01214
G1 X124.780 Y72.510 E0.01451
G1 X124.391 Y72.686 E0.01341
G1 X123.978 Y72.793 E0.01336
G1 X123.554 Y72.829 E0.01336
G1 X123.129 Y72.793 E0.01336
G1 X122.717 Y72.686 E0.01336
G1 X122.365 Y72.526 E0.01214
G1 X121.977 Y72.273 E0.01451
G1 X121.669 Y71.977 E0.01341
G1 X121.415 Y71.635 E0.01336
G1 X121.224 Y71.254 E0.01336
G1 X121.099 Y70.847 E0.01336
G1 X121.056 Y70.512 E0.01060
M204 S1250
G1 X120.692 Y70.270 F9000.000
G1 E-2.24000 F4200.000
;WIPE_START
G1 F7200.000
G1 X121.063 Y69.999 E-0.28420
G1 X121.152 Y69.582 E-0.23606
G1 X121.311 Y69.187 E-0.23606
G1 X121.459 Y68.948 E-0.15568
;WIPE_END
G1 E-0.04800 F4200.000
G1 Z0.400 F9000.000
G1 X112.524 Y127.506
G1 Z0.200
G1 E3.20000 F2400.000
M204 S800
;TYPE:Perimeter
G1 F1200.000
G1 X113.008 Y127.589 E0.01537
G1 X113.470 Y127.752 E0.01537
G1 X113.898 Y127.991 E0.01537
G1 X114.247 Y128.273 E0.01406
G1 X114.601 Y128.664 E0.01653
G1 X114.860 Y129.085 E0.01551
G1 X115.043 Y129.540 E0.01537
G1 X115.146 Y130.019 E0.01537
G1 X115.167 Y130.508 E0.01537
G1 X115.104 Y130.995 E0.01537
G1 X114.961 Y131.463 E0.01537
G1 X114.740 Y131.901 E0.01537
G1 X114.449 Y132.295 E0.01537
G1 X114.095 Y132.634 E0.01537
G1 X113.689 Y132.909 E0.01537
G1 X113.242 Y133.111 E0.01537
G1 X112.768 Y133.234 E0.01537
G1 X112.279 Y133.276 E0.01537
G1 X111.791 Y133.234 E0.01537
G1 X111.317 Y133.111 E0.01537
G1 X110.870 Y132.909 E0.01537
G1 X110.464 Y132.634 E0.01537
G1 X110.110 Y132.295 E0.01537
G1 X109.819 Y131.901 E0.01537
G1 X109.598 Y131.463 E0.01537
G1 X109.454 Y130.995 E0.01537
G1 X109.392 Y130.508 E0.01537
G1 X109.413 Y130.019 E0.01537
G1 X109.516 Y129.540 E0.01537
G1 X109.699 Y129.085 E0.01537
G1 X109.956 Y128.667 E0.01537
G1 X110.280 Y128.299 E0.01537
G1 X110.661 Y127.991 E0.01537
G1 X111.089 Y127.752 E0.01537
G1 X111.551 Y127.589 E0.01537
G1 X112.034 Y127.506 E0.01537
G1 X112.464 Y127.506 E0.01349
M204 S1250
G1 X112.464 Y127.883 F9000.000
M204 S800
;TYPE:External perimeter
G1 F1200.000
G1 X112.912 Y127.955 E0.01422
G1 X113.314 Y128.097 E0.01336
G1 X113.686 Y128.305 E0.01336
G1 X113.987 Y128.548 E0.01214
G1 X114.298 Y128.891 E0.01451
G1 X114.522 Y129.255 E0.01341
G1 X114.681 Y129.650 E0.01336
G1 X114.771 Y130.067 E0.01336
G1 X114.789 Y130.492 E0.01336
G1 X114.735 Y130.915 E0.01336
G1 X114.610 Y131.322 E0.01336
G1 X114.418 Y131.703 E0.01336
G1 X114.165 Y132.045 E0.01336
G1 X113.857 Y132.340 E0.01336
G1 X113.504 Y132.578 E0.01336
G1 X113.116 Y132.754 E0.01336
G1 X112.704 Y132.861 E0.01336
G1 X112.279 Y132.897 E0.01336
G1 X111.855 Y132.861 E0.01336
G1 X111.443 Y132.754 E0.01336
G1 X111.055 Y132.578 E0.01336
G1 X110.702 Y132.340 E0.01336
G1 X110.394 Y132.045 E0.01336
G1 X110.141 Y131.703 E0.01336
G1 X109.949 Y131.322 E0.01336
G1 X109.824 Y130.915 E0.01336
G1 X109.770 Y130.492 E0.01336
G1 X109.788 Y130.067 E0.01336
G1 X109.878 Y129.650 E0.01336
G1 X110.037 Y129.255 E0.01336
G1 X110.260 Y128.892 E0.01336
G1 X110.542 Y128.573 E0.01336
G1 X110.873 Y128.305 E0.01336
G1 X111.245 Y128.097 E0.01336
G1 X111.647 Y127.955 E0.01336
G1 X112.066 Y127.883 E0.01336
G1 X112.404 Y127.883 E0.01060
M204 S1250
G1 X112.691 Y127.553 F9000.000
G1 E-2.24000 F4200.000
;WIPE_START
G1 F7200.000
G1 X112.912 Y127.955 E-0.28420
G1 X113.314 Y128.097 E-0.23606
G1 X113.686 Y128.305 E-0.23606
G1 X113.904 Y128.482 E-0.15568
;WIPE_END
G1 E-0.04800 F4200.000
G1 Z0.400 F9000.000
G1 X54.474 Y128.800
G1 Z0.200
G1 E3.20000 F2400.000
M204 S800
;TYPE:Perimeter
G1 F1200.000
G1 X54.411 Y129.286 E0.01537
G1 X54.268 Y129.755 E0.01537
G1 X54.066 Y130.155 E0.01406
G1 X53.759 Y130.584 E0.01653
G1 X53.402 Y130.926 E0.01551
G1 X52.996 Y131.200 E0.01537
G1 X52.549 Y131.402 E0.01537
G1 X52.075 Y131.526 E0.01537
G1 X51.586 Y131.567 E0.01537
G1 X51.098 Y131.526 E0.01537
G1 X50.624 Y131.402 E0.01537
G1 X50.177 Y131.200 E0.01537
G1 X49.771 Y130.926 E0.01537
G1 X49.417 Y130.587 E0.01537
G1 X49.125 Y130.193 E0.01537
G1 X48.905 Y129.755 E0.01537
G1 X48.761 Y129.286 E0.01537
G1 X48.699 Y128.800 E0.01537
G1 X48.720 Y128.310 E0.01537
G1 X48.823 Y127.831 E0.01537
G1 X49.006 Y127.376 E0.01537
G1 X49.241 Y126.994 E0.01406
G1 X49.583 Y126.594 E0.01653
G1 X49.968 Y126.283 E0.01551
G1 X50.396 Y126.044 E0.01537
G1 X50.858 Y125.881 E0.01537
G1 X51.341 Y125.798 E0.01537
G1 X51.831 Y125.798 E0.01537
G1 X52.314 Y125.881 E0.01537
G1 X52.777 Y126.044 E0.01537
G1 X53.205 Y126.283 E0.01537
G1 X53.586 Y126.591 E0.01537
G1 X53.910 Y126.959 E0.01537
G1 X54.145 Y127.341 E0.01406
G1 X54.349 Y127.827 E0.01653
G1 X54.453 Y128.310 E0.01551
G1 X54.471 Y128.740 E0.01349
M204 S1250
G1 X54.094 Y128.756 F9000.000
M204 S800
;TYPE:External perimeter
G1 F1200.000
G1 X54.041 Y129.206 E0.01422
G1 X53.917 Y129.614 E0.01336
G1 X53.742 Y129.959 E0.01214
G1 X53.473 Y130.335 E0.01451
G1 X53.164 Y130.631 E0.01341
G1 X52.811 Y130.870 E0.01336
G1 X52.423 Y131.045 E0.01336
G1 X52.011 Y131.153 E0.01336
G1 X51.586 Y131.189 E0.01336
G1 X51.162 Y131.153 E0.01336
G1 X50.750 Y131.045 E0.01336
G1 X50.361 Y130.870 E0.01336
G1 X50.009 Y130.631 E0.01336
G1 X49.701 Y130.337 E0.01336
G1 X49.448 Y129.994 E0.01336
G1 X49.256 Y129.614 E0.01336
G1 X49.131 Y129.206 E0.01336
G1 X49.077 Y128.784 E0.01336
G1 X49.095 Y128.358 E0.01336
G1 X49.185 Y127.942 E0.01336
G1 X49.344 Y127.547 E0.01336
G1 X49.547 Y127.217 E0.01214
G1 X49.847 Y126.865 E0.01451
G1 X50.180 Y126.597 E0.01341
G1 X50.552 Y126.389 E0.01336
G1 X50.953 Y126.247 E0.01336
G1 X51.373 Y126.175 E0.01336
G1 X51.799 Y126.175 E0.01336
G1 X52.219 Y126.247 E0.01336
G1 X52.621 Y126.389 E0.01336
G1 X52.993 Y126.597 E0.01336
G1 X53.324 Y126.864 E0.01336
G1 X53.606 Y127.184 E0.01336
G1 X53.808 Y127.513 E0.01214
G1 X53.987 Y127.940 E0.01451
G1 X54.077 Y128.358 E0.01341
G1 X54.092 Y128.696 E0.01060
M204 S1250
G1 X54.434 Y128.968 F9000.000
G1 E-2.24000 F4200.000
;WIPE_START
G1 F7200.000
G1 X54.041 Y129.206 E-0.28420
G1 X53.917 Y129.614 E-0.23606
G1 X53.742 Y129.959 E-0.21448
G1 X53.556 Y130.219 E-0.17726
;WIPE_END
G1 E-0.04800 F4200.000
G1 Z0.400 F9000.000
G1 X33.996 Y125.526
G1 Z0.200
G1 E3.20000 F2400.000
M204 S800
;TYPE:Perimeter
G1 F1200.000
G1 X33.973 Y125.345 E0.00574
G1 X33.973 Y75.553 E1.56118
G1 X34.086 Y74.188 E0.04295
G1 X34.414 Y72.891 E0.04193
G1 X34.950 Y71.666 E0.04193
G1 X35.681 Y70.546 E0.04193
G1 X36.585 Y69.561 E0.04193
G1 X37.639 Y68.738 E0.04193
G1 X38.814 Y68.100 E0.04193
G1 X40.026 Y67.681 E0.04020
G1 X41.398 Y67.440 E0.04369
G1 X42.734 Y67.436 E0.04187
G1 X44.085 Y67.658 E0.04295
G1 X63.973 Y72.629 E0.64275
G1 X65.875 Y72.941 E0.06045
G1 X67.836 Y72.936 E0.06147
G1 X69.769 Y72.609 E0.06147
G1 X71.622 Y71.968 E0.06147
G1 X73.344 Y71.032 E0.06147
G1 X74.889 Y69.826 E0.06147
G1 X76.215 Y68.382 E0.06147
G1 X77.286 Y66.740 E0.06147
G1 X78.072 Y64.944 E0.06147
G1 X78.553 Y63.043 E0.06147
G1 X78.711 Y61.122 E0.06045
G1 X78.711 Y60.704 E0.01309
G1 X78.829 Y59.312 E0.04380
G1 X79.170 Y57.992 E0.04275
G1 X79.727 Y56.748 E0.04275
G1 X80.484 Y55.614 E0.04275
G1 X81.421 Y54.623 E0.04275
G1 X82.511 Y53.803 E0.04275
G1 X83.722 Y53.178 E0.04275
G1 X85.022 Y52.764 E0.04275
G1 X86.413 Y52.568 E0.04406
G1 X95.599 Y51.861 E0.28887
M73 P0 R86
G1 X104.788 Y50.763 E0.29017
G1 X113.923 Y49.281 E0.29017
M73 P1 R86
G1 X122.987 Y47.416 E0.29017
G1 X131.926 Y45.182 E0.28889
G1 X133.274 Y44.931 E0.04297
G1 X134.603 Y44.905 E0.04170
G1 X135.919 Y45.096 E0.04170
G1 X137.186 Y45.500 E0.04170
G1 X138.370 Y46.106 E0.04170
G1 X139.439 Y46.897 E0.04170
G1 X140.365 Y47.852 E0.04170
G1 X141.140 Y48.972 E0.04271
G1 X144.935 Y55.545 E0.23799
G1 X145.496 Y56.722 E0.04088
G1 X145.857 Y57.943 E0.03990
G1 X146.023 Y59.204 E0.03990
G1 X145.990 Y60.477 E0.03990
G1 X145.758 Y61.728 E0.03990
G1 X145.333 Y62.928 E0.03990
G1 X144.725 Y64.046 E0.03990
G1 X143.950 Y65.056 E0.03990
G1 X143.027 Y65.932 E0.03990
G1 X141.953 Y66.670 E0.04088
G1 X137.312 Y69.349 E0.16802
G1 X135.867 Y70.333 E0.05480
G1 X134.565 Y71.542 E0.05572
G1 X133.456 Y72.931 E0.05572
G1 X132.568 Y74.470 E0.05572
G1 X131.918 Y76.124 E0.05572
G1 X131.523 Y77.857 E0.05572
G1 X131.392 Y79.600 E0.05480
G1 X131.392 Y127.777 E1.51056
G1 X131.365 Y127.919 E0.00452
G1 X131.248 Y128.137 E0.00777
G1 X131.070 Y128.358 E0.00889
G1 X130.560 Y128.820 E0.02158
G1 X129.650 Y129.423 E0.03423
G1 X127.862 Y130.291 E0.06232
G1 X125.178 Y131.244 E0.08932
G1 X121.699 Y132.166 E0.11283
G1 X116.841 Y133.116 E0.15521
G1 X110.974 Y133.933 E0.18571
